X:1
T:Gartenlieder
T:Im Wald
T:Fanny Hensel
T:Text: Emanuel Geibel
T:Im Wald
T:Nr. 6 aus Gartenlieder Op.3 
T:CPDL - Creative Commons Attribution Non Commercial 3.0
T:CPDL - Creative Commons Attribution Non Commercial 3.0
T:CPDL - Creative Commons Attribution Non Commercial 3.0
T:CPDL - Creative Commons Attribution Non Commercial 3.0
T:CPDL - Creative Commons Attribution Non Commercial 3.0
T:CPDL - Creative Commons Attribution Non Commercial 3.0
T:CPDL - Creative Commons Attribution Non Commercial 3.0
T:CPDL - Creative Commons Attribution Non Commercial 3.0
C:Fanny Hensel
Z:Emanuel Geibel
Z:CPDL - Creative Commons Attribution Non Commercial 3.0
%%score [ 1 2 3 4 ]
L:1/8
Q:1/4=120
M:4/4
K:A
V:1 treble nm="Sopran"
V:2 treble nm="Alt"
V:3 treble-8 nm="Tenor"
V:4 bass nm="Bass"
V:1
"^Allegro vivace"!f! E2 | e3 c{B} AG Ac | d2 f2 e2 z!p! c | c2 B2 c2 B2 | d4 G2 A2 | %5
w: Im|Wald, im hel- * len _|Son- nen- schein, wenn|al- le Knos- pen|sprin- gen, dann|
 B3 B"^cresc." c3 c | d3 d e3!f! f | e2 d2 z2!p! c2 | B2 A2 z2!mf! E2 | G2 A2 c3 B | A2 c2 e2 z E | %11
w: mag ich ger- ne|mit- ten- drein eins|sin- gen, eins|sin- gen. Wie|mir zu Mut in|Leid und Lust, im|
"^cresc." G2 A2 =c3 B | B4 A2!f! A2 | =G2 B2 e3 d | =c2 e2 =g3 =f | =f2 e2 z2!p! e2 | %16
w: Wa- chen und im|Träu- men, das|stimm ich an aus|vol- ler Brust den|Bäu- men, den|
 d2 =c2 z2!f! B2 | A6 A2 | d2 =c2 B2 A2 | (e4 d2) ^c2 | f4 B2 z c | B2 A2 z2 | %22
w: Bäu- men, das|stimm ich|an aus vol- ler|Brust _ den|Bäu- men, den|Bäu- men.|
[M:6/8][Q:1/4=120]"^Poco più presto" z3!p! FGA | B2 A G2 d | c2 c f2 e | d2 c (B2 d) | c2 z FGA | %27
w: Und sie ver-|ste- hen mich gar|fein, die Blät- ter|al- le lau- *|schen, und fall'n am|
 B2 A G2 F | (d3 c2) f | c6 | c2 z!pp! FGA | B2 A G2 d | c2 c f2 e | %33
w: rech- ten Or- te|ein _ mit|Rau-|schen. Und sie ver-|ste- hen mich gar|fein, die Blät- ter|
[Q:1/4=110]"^poco ritard." d2 c (B2 d) | !fermata!d2!f![Q:1/4=120]"^a tempo" c f2 e | d2 c B2 A | %36
w: al- le lau- *|schen, und fall'n am|rech- ten Or- te|
 (G2 F ^E2) F | (c^d^ef=e=d | c6) | c2!p! F FG^A | B2 ^A"^cresc." c2 B | (d3 c2)!f! F | f2 e d2 c | %43
w: ein _ _ mit|Rau- * * * * *||schen. Und wei- * ter|wan- delt Schall und|Hall, _ in|Wip- feln, Fels und|
 c3 B2 z | !>!e3 cBA | G2 A B2 c | (d3 c2) A | e3 d2 z | (f2 e) d2 c | B2 c d2 e | (f3 B2) f | %51
w: Bü- schen.|hell schmet- * tert|auch Frau Nach- ti-|gall _ da-|zwi- schen.|hell _ schmet- tert|auch Frau Nach- ti-|gall _ da-|
 f3 !fermata!B3 |[M:4/4]!f![Q:1/4=120]"^Tempo I°" E2 | e3 c{B} AG Ac | d2 f2 e2 z!mf! c | %55
w: zwi- schen.|Da|fühlt die Brust _ am _|eig- nen Klang, sie|
 c2 B2 c2 B2 | d4 G2 A2 |"^cresc." B3 B c3 c | d3 d e3!f! f | e2 d2 z2!p! c2 | B2 A2 z2 E2 | %61
w: darf sich was er-|küh- nen, o|fri- sche Lust, Ge-|sang, Ge- sang im|Grü- nen, im|Grü- nen, da|
 G2 A2 c3 B | A2 c2 e2 z E | G2 A2"^cresc." c3 B | B4 A2 A2 |!f! e3 d d2 A2 | =g3 f f2 z f | %67
w: fühlt die Brust am|eig- nen Klang, sie|darf sich was er-|küh- nen, o|fri- sche Lust, o|fri- sche Lust, Ge-|
 a2 e2 c2 A2 | (B3 c/d/) c2 z A | e3 d d2 A2 | =g3 f f2 z f | a2 e2 dc BA | GA cf (e3 G) | %73
w: sang, Ge- sang im|Grü- * * nen, o|fri- sche Lust, o|fri- sche Lust, Ge-|sang, o fri- * sche _|Lust _ im _ Grü- *|
 A2 z2 e4 | c2 A2 d2 c2 | (c4 B2) f2 | (f4 e2) G2 | G2 A2 z2 z!f! C | E3 A c3 e | (a4 e2) c2 | %80
w: nen. O|fri- sche Lust, Ge-|sang, _ Ge-|sang _ im|Grü- nen, O|fri- sche Lust, Ge-|sang, _ Ge-|
 A2 E2 (c3 B) | A2 z2 z2 |] %82
w: sang im Grü- *|nen.|
V:2
!f! E2 | A3 A A2 A2 | A2 A2 A2 z!p! E | ^D2 D2 D2 D2 | =D4 D2 C2 | F3 F"^cresc." ^E3 E | %6
w: ||||||
 F3 F A3!f! A | =G2 F2 z2!p! F2 | D2 C2 z2!mf! E2 | E2 E2 G3 G | A2 E2 G2 z E | %11
w: |||||
"^cresc." E2 E2 G3 G | G4 A2!f! D2 | D2 =G2 B3 B | =c2 =G2 B3 B | B2 =c2 z2!p! =G2 | %16
w: |||||
 =F2 E2 z2!f! D2 | =C2 B,2 C2 ^C2 | D4 ^D4 | E6 E2 | A4 G2 z G | G2 A2 z2 |[M:6/8] z3!p! FFF | %23
w: * * das|stimm ich an aus|vol- ler|Brust den|Bäu- men, den|Bäu- men.||
 F2 F F2 ^E | F2 F A2 A | B2 F F3 | F2 z FFF | F2 F!<(! ^E2 F!<)! | (^E3 F2) z | z2 A (G2 A) | %30
w: |||||||
 F2 z!pp! FFF | F2 F ^E2 E | F2 F G2 ^A | B2 A G3 | !fermata!G2 z z2!f!"^und" C | F2 E D2 C | %36
w: |||||fall'n am rech- ten|
 D2 C C2 C | F3 F2 z | z2 F (^E2 G) | F2!p! F F2 F | F2 F"^cresc." F2 F | F3- F2!f! F | %42
w: Or- te ein mit|Rau- schen,|||||
 F2 ^A B2 F | E3 E2 z | !>!A3 E2 E | E2 E G2 A | E3- E2 A | A3 A2 z | (d2 c) B2 A | G2 A B2 c | %50
w: ||||||||
 (d3 G2) d | d3 !fermata!G3 |[M:4/4]!f! E2 | A3 A E2 A2 | A2 A2 A2 z!mf! E | ^D2 D2 D2 D2 | %56
w: ||||||
 =D4 D2 C2 |"^cresc." F3 F ^E3 E | F3 F A3!f! A | =G2 F2 z2!p! F2 | D2 C2 z2 E2 | E2 E2 G3 G | %62
w: ||||||
 A2 E2 G2 z E | E2 E2"^cresc." ^G3 G | G4 F2 A2 |!f! A3 A A2 A2 | C3 ^B, B,2 z B, | C2 E2 A2 E2 | %68
w: ||||||
 E2 G2 A2 z A | A3 A A2 A2 | A3 A A2 z A | A2 z2 z4 | z2 A2 (G2 D2) | C2 z2 c4 | A2 C2 F2 E2 | %75
w: |||||||
 ^D6 A2 | G6 D2 | D2 C2 z2 z!f! C | E3 E A3 A | E6 A2 | E2 C2 D4 | C2 z2 z2 |] %82
w: |||||||
V:3
!f! e2 | c3 e cB ce | f2 d2 c2 z!p! A | A2 A2 A2 A2 | G4 B2 A2 | d3 d"^cresc." G3 G | %6
w: Im|Wald, im hel- * len _|Son- nen- schein, wenn|al- le Knos- pen|sprin- gen, dann|mag ich ger- ne|
 B3 B c3!f! c | c2 d2 z2!p! d2 | G2 A2 z2!mf! G2 | B2 c2 e3 d | c2 A2 B2 z G | %11
w: mit- ten- drein eins|sin- gen, eins|sin- gen. Wie|mir zu Mut in|Leid und Lust, im|
"^cresc." B2 =c2 e3 =d | d4 =c2!f! c2 | B2 d2 =g3 =f | e2 =c2 d3 d | d2 =c2 z2!p! =G2 | %16
w: Wa- chen und im|Träu- men, das|stimm ich an aus|vol- ler Brust den|Bäu- men, den|
 B2 =c2 z2!f! G2 | A6 A2 | A4 A4 | (c4 B2) A2 | (B4 d2) z e | d2 c2 z2 |[M:6/8] z3!p! ABc | %23
w: Bäu- men, das|stimm ich|an aus|vol- * ler|Brust _ den|Bäu- men,|Und sie ver-|
 d2 c B2 B | A2 A c2 c | B2 A (G2 B) | A2 z ABc | d2 c!<(! B2 A!<)! | (G3 A2) z | z2 c (B2 c) | %30
w: ste- hen mich gar|fein, die Blät- ter|al- le lau- *|schen, und fall'n am|rech- ten Or- te|ein _|mit Rau- *|
 A2 z!pp! ABc | d2 c B2 B | ^A2 A B2 c | d2 e ^e3 | !fermata!^e2 z z3 | z2!f! F B2 c | %36
w: schen. Und sie ver-|ste- hen mich gar|fein, die Blät- ter|al- le lau-|schen,|und fal- len|
 (B2 A) (B2 c) | A3 A2 z | z2 A (G2 B) | A2!p! ^A ABc | d2 c"^cresc." e2 d | (B3 ^A2)!f! F | %42
w: ein _ mit _|Rau- schen,|mit Rau- *|schen. Und wei- * ter|wan- delt Schall und|Hall, _ in|
 d2 c B2 =A | A3 G2 z | !>!e3 A2 A | B2 A d2 c | (B3 A2) A | c3 d2 z | (G2 A) B2 c | d2 c B2 A | %50
w: Wip- feln, Fels und|Bü- schen.|hell schmet- tert|auch Frau Nach- ti-|gall _ da-|zwi- schen.|hell _ schmet- tert|auch Frau Nach- ti-|
 (G3 d2) G | G3 !fermata!d3 |[M:4/4]!f! e2 | c3 e cB ce | f2 d2 c2 z!mf! A | A2 A2 A2 A2 | %56
w: gall _ da-|zwi- schen.|Da|fühlt die Brust _ am _|eig- nen Klang, sie|darf sich was er-|
 G4 B2 A2 |"^cresc." d3 d G3 G | B3 B c3!f! c | c2 d2 z2!p! d2 | G2 A2 z2 G2 | B2 c2 e3 d | %62
w: küh- nen, o|fri- sche Lust, Ge-|sang, Ge- sang im|Grü- nen, im|Grü- nen, da|fühlt die Brust am|
 c2 A2 B2 z G | B2 c2"^cresc." c3 d | d4 c2 A2 |!f! c3 d d2 A2 | A3 A A2 z A | A2 c2 e2 c2 | %68
w: eig- nen Klang, sie|darf sich was er-|küh- nen, o|fri- sche Lust, o|fri- sche Lust, Ge-|sang, Ge- sang im|
 (d3 c/B/ A2) z A | c3 d d2 A2 | c3 ^B B2 z B | c2 z2 z4 | z2 c2 (d2 B2) | A2 z2 z4 | z4 z2!f! A2 | %75
w: Grü- * * nen, o|fri- sche Lust, o|fri- sche Lust, Ge-|sang,|im Grü- *|nen,|Ge-|
 A6 ^d2 | =d6 B2 | B2 A2 z2 z!f! A | c3 c e3 c | c6 e2 | c2 A2 G4 | A2 z2 z2 |] %82
w: sang, Ge-|sang im|Grü- nen, O|fri- sche Lust, Ge-|sang, Ge-|sang im Grü-|nen.|
V:4
!f! E,2 | A,3 A, A,2 A,2 | A,2 A,2 A,2 z!p! A, | F,2 F,2 B,,2 B,,2 | E,4 E,2 F,2 | %5
w: |||||
 D,3 D,"^cresc." C,3 C, | B,,3 B,, A,,3!f! A, | A,2 D,2 z2!p! D,2 | E,2 A,,2 z2!mf! E,2 | %9
w: ||||
 E,2 E,2 E,3 E, | E,2 E,2 E,2 z E, |"^cresc." E,2 E,2 E,3 E, | =F,4 F,2!f! ^F,2 | =G,2 G,2 G,3 G, | %14
w: |||||
 =G,2 G,2 G,3 G, | =G,2 =C,2 z2!p! E,2 | =G,2 =C,2 z2!f! E,2 | =F,6 F,2 | =F,4 F,4 | E,6 E,2 | %20
w: ||||||
 (^D,4 E,2) z E, | E,2 A,,2 z2 |[M:6/8] z3!p! F,F,F, | F,2 F, F,2 F, | F,2 F, F,2 F, | F,2 F, F,3 | %26
w: ||||||
 F,2 z F,F,E, | D,2 D,!<(! D,2 C,!<)! | (B,,3 A,,2) z | z2 C, ^E,3 | F,2 z!pp! F,F,F, | %31
w: |||||
 F,2 F, F,2 F, | F,2 F, F,2 F, | F,2 F, F,3 | !fermata!F,2 z z3 | z3 z2!f! C, | ^E,2 F, G,2 A, | %37
w: ||||und|fal- len ein mit|
 C,3 C,2 z | z2 C, C,3 | F,2!p! F, F,2 F, | F,2 F,"^cresc." F,2 F, | F,3- F,2!f! F, | %42
w: Rau- schen,|||||
 B,,2 C, D,2 ^D, | E,3 E,2 z | !>!C,3 C,2 C, | D,2 C, B,,2 A,, | (G,,3 A,,2) A, | =G,3 F,2 z | %48
w: ||||||
 (E,2 F,) G,2 A, | B,2 A, G,2 F, | (E,3 B,2) E, | E,3 !fermata!B,3 |[M:4/4]!f! E,2 | %53
w: |||||
 A,3 A, A,2 A,2 | A,2 A,2 A,2 z!mf! A, | F,2 F,2 B,,2 B,,2 | E,4 E,2 F,2 |"^cresc." D,3 D, C,3 C, | %58
w: |||||
 B,,3 B,, A,,3!f! A, | A,2 D,2 z2!p! D,2 | E,2 A,,2 z2 E,2 | E,2 E,2 E,3 E, | E,2 E,2 E,2 z E, | %63
w: |||||
 E,2 E,2"^cresc." ^E,3 E, | ^E,4 F,2 A,2 |!f! =G,3 F, F,2 A,2 | E,3 ^D, D,2 z D, | %67
w: ||||
 E,2 E,2 E,2 E,2 | E,4 A,,2 z A, | =G,3 F, F,2 A,2 | E,3 ^D, D,2 z D, | E,2 z2 z4 | z2 E,2 E,4 | %73
w: ||||||
 A,,2 z2 z4 | z4 z2!f! A,,2 | B,,6 B,2 | E,6 E,2 | E,2 A,,2 z2 z!f! A, | A,3 A, A,3 A, | A,,6 A,2 | %80
w: |||||||
 A,2 A,,2 E,4 | A,,2 z2 z2 |] %82
w: ||

